X:489
T:J.Forster Esq’rs Favourite. RH.489
R:galop
S:Rev.R.Harrison’s MS,c1815,Cumbria
O:England
A:Temple Sowerby,Cumbria
Z:vmp.Simon Wilson. Review PJH, 2008.
M:C|
L:1/16
Q:1/4=100
K:D
|:z2|A2fe d2Bd A2fe d2Bd|ABAG FGAF AGFG E2FG|\
A2fe d2Bd A2fe d2Bd|ABAG FGFE DFAc d2:|!
cd|:efga g2fe fgab a2gf|g2e’g f2d’e’ f’d’e’c’ d’2gf|\
efga g2fe fgab a2gf|g2e’g f2d’2 c’bab agfg:|

